X:80
T:Way to keep him, The
M:2/4
L:1/8
B:Thompson's Compleat Collection of 200 Favourite Country Dances, vol. 2 (London, 1765)
Z:Transcribed and edited by Flynn Titford-Mock, 2007
Z:abc's:AK/Fiddler's Companion
K:Gmin
B/c/ | d d2 ^f | g d2 e | dcBA | G/^F/G/A/ GB/c/ | d d2 ^f | g d2 e | dcBA | G3 :|
|: B/c/ | dced | cBdc | BA^FG | A/G/^F/=E/ DB/c/ | dced | ^fdge | dcBA | G3 :|

